source/Icon/translate.svg

<svg width="32" height="32" viewBox="0 0 48 48" fill="none" xmlns="http://www.w3.org/2000/svg">
    <path d="M28.2857 37H39.7143M42 42L39.7143 37L42 42ZM26 42L28.2857 37L26 42ZM28.2857 37L34 24L39.7143 37H28.2857Z" stroke="#000000" stroke-width="4" stroke-linecap="round" stroke-linejoin="round"/>
    <path d="M16 6L17 9" stroke="#000000" stroke-width="4" stroke-linecap="round" stroke-linejoin="round"/>
    <path d="M6 11H28" stroke="#000000" stroke-width="4" stroke-linecap="round" stroke-linejoin="round"/>
    <path d="M10 16C10 16 11.7895 22.2609 16.2632 25.7391C20.7368 29.2174 28 32 28 32" stroke="#000000" stroke-width="4" stroke-linecap="round" stroke-linejoin="round"/>
    <path d="M24 11C24 11 22.2105 19.2174 17.7368 23.7826C13.2632 28.3478 6 32 6 32" stroke="#000000" stroke-width="4" stroke-linecap="round" stroke-linejoin="round"/>
</svg>

<svg width="48" height="48" viewBox="0 0 48 48" fill="none" xmlns="http://www.w3.org/2000/svg"><path stroke-linejoin="round" stroke-linecap="round" stroke-width="4" stroke="#333" d="M28.286 37h11.428M42 42l-2.286-5L42 42Zm-16 0 2.286-5L26 42Zm2.286-5L34 24l5.714 13H28.286ZM16 6l1 3M6 11h22M10 16s1.79 6.26 6.263 9.74C20.737 29.216 28 32 28 32"/><path stroke-linejoin="round" stroke-linecap="round" stroke-width="4" stroke="#333" d="M24 11s-1.79 8.217-6.263 12.783C13.263 28.348 6 32 6 32"/></svg>
